surround-sound-2-1.svg

<svg fill="currentColor" viewBox="0 0 24 24"><path d="M4 7v2h4v2H6c-1.1 0-2 .9-2 2v4h6v-2H6v-2h2c1.1 0 2-.9 2-2V9c0-1.1-.9-2-2-2zm10 10h-2v-2h2zm2-10v2h2v8h2V7z"/></svg>

<svg  viewBox="0 0 24 24" fill="currentColor"><path  d="M4 7V9H8V11H6C4.9 11 4 11.9 4 13V17H10V15H6V13H8C9.1 13 10 12.1 10 11V9C10 7.9 9.1 7 8 7H4M14 17H12V15H14V17M16 7V9H18V17H20V7H16Z"/></svg>
